X: 1
T: Captain Archibald Lesley
C: D. Campbell
O: arr Gregor Borland
%R: song, jig
S: Boston Scottish Fiddle Club zoom workshop with Gregor Borland 2021-6-21
Z: 2021 John Chambers <jc:trillian.mit.edu>
M: 1/4
L: 1/16
K: Amix=g
ue2 \
|:  A->A(A>B) (A>B)(c>A) | (B2A2) (A2c<e) | (f>e)(a>f) e>cB<A | (c2B2) (B2e2) |
|[1 A->A(A>c)    e>cB<A  | (B2A2) (A2c<e) | (f>e)(a>f) e>cB<A | (B2A2) (A2 :|
|[2 A->A(A>c)    e>cB<A  | (B2A2) (A2c<e) | (f>e)(a>f) e>cB<A | (B2A2) (A2 |]
|: c<e) |\
(f3g) (f>e)a>e | (f2e2) (e3f) | (e>f)(a>f) e<cB<A |(c2B2) (B2 
[1 c<e) | (f3g) (f>e)a>e | (f2e2) (e3A>B) | c<ea>f e>cB<A | (B2A2) (A2 :|
[2 e2 | A>-A(A>c) e>cB<A | (B2A2) (A2c<e) | (f>e)(a>f) e>cB<A | (B2A2) A2 |]
